media/img/logo_partners.svg

<svg fill="none" height="60" viewBox="0 0 142 60" width="142" xmlns="http://www.w3.org/2000/svg"><path d="m9.34185 37.5036h17.18595v8.4964h-26.068566v-45.056773h8.882616zm48.63765 4.5057c-3.3041 3.2612-7.3378 4.8918-12.1009 4.8918-4.7632 0-8.7968-1.6306-12.101-4.8918-3.2612-3.3042-4.8919-7.3379-4.8919-12.101s1.6307-8.7753 4.8919-12.0366c3.3042-3.3042 7.3378-4.9562 12.101-4.9562 4.7631 0 8.7968 1.652 12.1009 4.9562 3.3042 3.2613 4.9563 7.2735 4.9563 12.0366s-1.6521 8.7968-4.9563 12.101zm-18.3445-5.7287c1.6735 1.6735 3.7547 2.5103 6.2436 2.5103 2.4888 0 4.57-.8368 6.2436-2.5103 1.6735-1.6735 2.5103-3.7976 2.5103-6.3723s-.8368-4.6988-2.5103-6.3723c-1.6736-1.6736-3.7548-2.5103-6.2436-2.5103-2.4889 0-4.5701.8367-6.2436 2.5103-1.6306 1.6735-2.446 3.7976-2.446 6.3723s.8154 4.6988 2.446 6.3723zm53.7946-22.464h8.1104v30.6386c0 4.9777-1.6523 8.7753-4.9565 11.3929-3.2612 2.6176-7.2091 3.9264-11.8435 3.9264-3.4758 0-6.5439-.6651-9.2044-1.9954-2.6176-1.3302-4.6344-3.2827-6.0505-5.8574l7.0804-4.0551c1.6306 3.0038 4.4413 4.5057 8.432 4.5057 2.6176 0 4.6773-.6866 6.1792-2.0597 1.5019-1.3732 2.2529-3.3256 2.2529-5.8574v-3.4758c-2.446 3.2612-5.8789 4.8919-10.2987 4.8919-4.5486 0-8.3677-1.5877-11.4573-4.7632-3.0467-3.2183-4.5701-7.1232-4.5701-11.7147 0-4.5486 1.5448-8.4321 4.6344-11.6504 3.0896-3.2184 6.8873-4.8275 11.393-4.8275 4.4198 0 7.8527 1.6306 10.2987 4.8918zm-15.5124 21.9491c1.7164 1.6306 3.8834 2.4459 6.501 2.4459s4.7631-.8153 6.4367-2.4459c1.7164-1.6736 2.5747-3.7977 2.5747-6.3723 0-2.5318-.8583-4.613-2.5747-6.2436-1.6736-1.6736-3.8191-2.5103-6.4367-2.5103s-4.7846.8367-6.501 2.5103c-1.6736 1.6306-2.5104 3.7118-2.5104 6.2436 0 2.5746.8368 4.6987 2.5104 6.3723zm58.5718 6.2436c-3.304 3.2612-7.337 4.8918-12.101 4.8918-4.763 0-8.796-1.6306-12.1-4.8918-3.262-3.3042-4.892-7.3379-4.892-12.101s1.63-8.7753 4.892-12.0366c3.304-3.3042 7.337-4.9562 12.1-4.9562 4.764 0 8.797 1.652 12.101 4.9562 3.305 3.2613 4.957 7.2735 4.957 12.0366s-1.652 8.7968-4.957 12.101zm-18.344-5.7287c1.673 1.6735 3.755 2.5103 6.243 2.5103 2.489 0 4.571-.8368 6.244-2.5103 1.674-1.6735 2.51-3.7976 2.51-6.3723s-.836-4.6988-2.51-6.3723c-1.673-1.6736-3.755-2.5103-6.244-2.5103-2.488 0-4.57.8367-6.243 2.5103-1.631 1.6735-2.446 3.7976-2.446 6.3723s.815 4.6988 2.446 6.3723z" fill="#fff" fill-opacity=".7"/></svg>

<svg width="142" height="60" viewBox="0 0 142 60" fill="none" xmlns="http://www.w3.org/2000/svg">
<path d="M9.34185 37.5036H26.5278V46H0.459234V0.943227H9.34185V37.5036ZM57.9795 42.0093C54.6754 45.2705 50.6417 46.9011 45.8786 46.9011C41.1154 46.9011 37.0818 45.2705 33.7776 42.0093C30.5164 38.7051 28.8857 34.6714 28.8857 29.9083C28.8857 25.1452 30.5164 21.133 33.7776 17.8717C37.0818 14.5675 41.1154 12.9155 45.8786 12.9155C50.6417 12.9155 54.6754 14.5675 57.9795 17.8717C61.2837 21.133 62.9358 25.1452 62.9358 29.9083C62.9358 34.6714 61.2837 38.7051 57.9795 42.0093ZM39.635 36.2806C41.3085 37.9541 43.3897 38.7909 45.8786 38.7909C48.3674 38.7909 50.4486 37.9541 52.1222 36.2806C53.7957 34.6071 54.6325 32.483 54.6325 29.9083C54.6325 27.3336 53.7957 25.2095 52.1222 23.536C50.4486 21.8624 48.3674 21.0257 45.8786 21.0257C43.3897 21.0257 41.3085 21.8624 39.635 23.536C38.0044 25.2095 37.189 27.3336 37.189 29.9083C37.189 32.483 38.0044 34.6071 39.635 36.2806ZM93.4296 13.8166H101.54V44.4552C101.54 49.4329 99.8877 53.2305 96.5835 55.8481C93.3223 58.4657 89.3744 59.7745 84.74 59.7745C81.2642 59.7745 78.1961 59.1094 75.5356 57.7791C72.918 56.4489 70.9012 54.4964 69.4851 51.9217L76.5655 47.8666C78.1961 50.8704 81.0068 52.3723 84.9975 52.3723C87.6151 52.3723 89.6748 51.6857 91.1767 50.3126C92.6786 48.9394 93.4296 46.987 93.4296 44.4552V40.9794C90.9836 44.2406 87.5507 45.8713 83.1309 45.8713C78.5823 45.8713 74.7632 44.2836 71.6736 41.1081C68.6269 37.8898 67.1035 33.9849 67.1035 29.3934C67.1035 24.8448 68.6483 20.9613 71.7379 17.743C74.8275 14.5246 78.6252 12.9155 83.1309 12.9155C87.5507 12.9155 90.9836 14.5461 93.4296 17.8073V13.8166ZM77.9172 35.7657C79.6336 37.3963 81.8006 38.2116 84.4182 38.2116C87.0358 38.2116 89.1813 37.3963 90.8549 35.7657C92.5713 34.0921 93.4296 31.968 93.4296 29.3934C93.4296 26.8616 92.5713 24.7804 90.8549 23.1498C89.1813 21.4762 87.0358 20.6395 84.4182 20.6395C81.8006 20.6395 79.6336 21.4762 77.9172 23.1498C76.2436 24.7804 75.4068 26.8616 75.4068 29.3934C75.4068 31.968 76.2436 34.0921 77.9172 35.7657ZM136.489 42.0093C133.185 45.2705 129.152 46.9011 124.388 46.9011C119.625 46.9011 115.592 45.2705 112.288 42.0093C109.026 38.7051 107.396 34.6714 107.396 29.9083C107.396 25.1452 109.026 21.133 112.288 17.8717C115.592 14.5675 119.625 12.9155 124.388 12.9155C129.152 12.9155 133.185 14.5675 136.489 17.8717C139.794 21.133 141.446 25.1452 141.446 29.9083C141.446 34.6714 139.794 38.7051 136.489 42.0093ZM118.145 36.2806C119.818 37.9541 121.9 38.7909 124.388 38.7909C126.877 38.7909 128.959 37.9541 130.632 36.2806C132.306 34.6071 133.142 32.483 133.142 29.9083C133.142 27.3336 132.306 25.2095 130.632 23.536C128.959 21.8624 126.877 21.0257 124.388 21.0257C121.9 21.0257 119.818 21.8624 118.145 23.536C116.514 25.2095 115.699 27.3336 115.699 29.9083C115.699 32.483 116.514 34.6071 118.145 36.2806Z" fill="white" fill-opacity="0.7"/>
</svg>
